!!! OTL: Berkowitz602
!!! Chapter: 1
!!! Section: V
!!! Page: 153
!!! Mode: 
!!! Encoder: AR
**kern
*staff1
=1-
!!pagebreak:original
*clefG2
*k[]
*C:
*M2/4
8b/L
8a#/J
4g#/
=2
8a#/L
8g#/J
4gn/
=3
*M3/4
8f/L
8g/J
8a-/L
8b-/J
4cc\
=4
*M2/4
8cc#\L
8dd\J
8cc#\L
8bn\J
=5
8a#/L
8b/J
8a#/L
8g#/J
=6
*M5/8
8cc#\L
8dd\J
8cc#\L
8b\
8a#\J
=7
!!linebreak:original
8g#/L
8a#/J
8g#/L
8gn/
8f/J
=8
4b\
8f/
4b\
=9
*M2/4
4r
8b/L
8a#/J
=10
4g#/
8a#/L
8g#/J
=11
*M3/4
4f#/
8fn/L
8gn/J
8a-/L
8b-/J
=12
4.bn\
[8dd\
4dd\]
=13
*M2/4
2b\
==
*-
